svg/fluentui-system-icons/ic_fluent_cloud_words_24_filled.svg

<svg width="24" height="24" viewBox="0 0 24 24" fill="none" xmlns="http://www.w3.org/2000/svg">
<path d="M12 5C9.02022 5 6.54808 7.17188 6.07981 10.0194C3.79155 10.2313 2 12.1564 2 14.5C2 16.9853 4.01472 19 6.5 19H17.5C19.9853 19 22 16.9853 22 14.5C22 12.1564 20.2085 10.2313 17.9202 10.0194C17.4519 7.17189 14.9798 5 12 5ZM10 9.5H14C14.4142 9.5 14.75 9.83579 14.75 10.25C14.75 10.6642 14.4142 11 14 11H10C9.58579 11 9.25 10.6642 9.25 10.25C9.25 9.83579 9.58579 9.5 10 9.5ZM5.5 14.25C5.5 13.8358 5.83579 13.5 6.25 13.5H10.25C10.6642 13.5 11 13.8358 11 14.25C11 14.6642 10.6642 15 10.25 15H6.25C5.83579 15 5.5 14.6642 5.5 14.25ZM13.75 13.5H17.75C18.1642 13.5 18.5 13.8358 18.5 14.25C18.5 14.6642 18.1642 15 17.75 15H13.75C13.3358 15 13 14.6642 13 14.25C13 13.8358 13.3358 13.5 13.75 13.5Z" fill="#212121"/>
</svg>

<svg xmlns="http://www.w3.org/2000/svg" width="24" height="24"><path d="M12 5a6.001 6.001 0 0 0-5.92 5.02A4.5 4.5 0 0 0 6.5 19h11a4.5 4.5 0 0 0 .42-8.98A6.001 6.001 0 0 0 12 5Zm-2 4.5h4a.75.75 0 0 1 0 1.5h-4a.75.75 0 0 1 0-1.5Zm-4.5 4.75a.75.75 0 0 1 .75-.75h4a.75.75 0 0 1 0 1.5h-4a.75.75 0 0 1-.75-.75Zm8.25-.75h4a.75.75 0 0 1 0 1.5h-4a.75.75 0 0 1 0-1.5Z"/></svg>
